assets/icons/decrease.svg

<svg width="25" height="25" viewBox="0 0 25 25" fill="none" xmlns="http://www.w3.org/2000/svg">
<g id="decrease">
<path id="iconDefault" fill-rule="evenodd" clip-rule="evenodd" d="M3.72475 3.51643C3.96882 3.27235 4.36455 3.27235 4.60863 3.51643L12.5 11.4078L20.3914 3.51643C20.6355 3.27235 21.0312 3.27235 21.2753 3.51643C21.5194 3.76051 21.5194 4.15624 21.2753 4.40032L12.942 12.7336C12.6979 12.9777 12.3022 12.9777 12.0581 12.7336L3.72475 4.40032C3.48067 4.15624 3.48067 3.76051 3.72475 3.51643ZM3.72475 11.8498C3.96882 11.6057 4.36455 11.6057 4.60863 11.8498L12.5 19.7412L20.3914 11.8498C20.6355 11.6057 21.0312 11.6057 21.2753 11.8498C21.5194 12.0938 21.5194 12.4896 21.2753 12.7336L12.942 21.067C12.6979 21.3111 12.3022 21.3111 12.0581 21.067L3.72475 12.7336C3.48067 12.4896 3.48067 12.0938 3.72475 11.8498Z" fill="#18303F"/>
</g>
</svg>

<svg width="25" height="25" viewBox="0 0 25 25" fill="none"><g id="decrease"><path id="iconDefault" fill-rule="evenodd" clip-rule="evenodd" d="M3.725 3.516a.625.625 0 0 1 .884 0l7.891 7.892 7.891-7.892a.625.625 0 0 1 .884.884l-8.333 8.334a.625.625 0 0 1-.884 0L3.725 4.4a.625.625 0 0 1 0-.884Zm0 8.334a.625.625 0 0 1 .884 0l7.891 7.89 7.891-7.891a.625.625 0 0 1 .884.884l-8.333 8.333a.625.625 0 0 1-.884 0l-8.333-8.333a.625.625 0 0 1 0-.884Z" fill="#18303F"/></g></svg>
